X: 20621
Q: "Moderate."
M: C
L: 1/8
K: G
|: d2 |\
d2d>d d3e | d3^c =c2z2 | B2^A>B d3^c | B2 d4 z2 |\
|: d2 |\
d2d>d e2d2 | d2g2 B2B>B | d2c>B A2c2 | c2B>A G2d>d |\
d2d>d e2d2 | d2g2 B2B>B | d2c>B A2d2 | G2g>g g2 :|


